X: 1
T: Castletown Connors
M: 6/8
L: 1/8
R: jig
K: Edor
|:E| EDE G2A | B2e dBd | edB GAB | ABA AGE |
EDE G2A | BeB dBd | edB GAB | AGF G2 :|
|:B | ded def | g2e fdB | ABA ABd | egf e2f |
g2e fed | edB g3 | edB AGA | BGF G2 :|
